app/client/src/assets/icons/blueprintjs/20px/temperature.svg

<svg width="20" height="20" viewBox="0 0 20 20" fill="none" xmlns="http://www.w3.org/2000/svg">
<path fill-rule="evenodd" clip-rule="evenodd" d="M11 0C9.89543 0 9 0.895431 9 2V12.5351C7.8044 13.2267 7 14.5194 7 16C7 18.2091 8.79086 20 11 20C13.2091 20 15 18.2091 15 16C15 14.5194 14.1956 13.2267 13 12.5351V2C13 0.895431 12.1046 0 11 0ZM3 2.5C3 2.22386 3.22386 2 3.5 2L7.5 2C7.77614 2 8 2.22386 8 2.5C8 2.77614 7.77614 3 7.5 3L3.5 3C3.22386 3 3 2.77614 3 2.5ZM3.5 8C3.22386 8 3 8.22386 3 8.5C3 8.77614 3.22386 9 3.5 9H7.5C7.77614 9 8 8.77614 8 8.5C8 8.22386 7.77614 8 7.5 8H3.5ZM5 5.5C5 5.22386 5.22386 5 5.5 5H7.5C7.77614 5 8 5.22386 8 5.5C8 5.77614 7.77614 6 7.5 6H5.5C5.22386 6 5 5.77614 5 5.5ZM5.5 11C5.22386 11 5 11.2239 5 11.5C5 11.7761 5.22386 12 5.5 12H7.5C7.77614 12 8 11.7761 8 11.5C8 11.2239 7.77614 11 7.5 11H5.5Z" fill="#5C7080"/>
</svg>

<svg xmlns="http://www.w3.org/2000/svg" width="20" height="20"><path fill-rule="evenodd" d="M11 0a2 2 0 0 0-2 2v10.535a4 4 0 1 0 4 0V2a2 2 0 0 0-2-2ZM3 2.5a.5.5 0 0 1 .5-.5h4a.5.5 0 0 1 0 1h-4a.5.5 0 0 1-.5-.5ZM3.5 8a.5.5 0 0 0 0 1h4a.5.5 0 0 0 0-1h-4ZM5 5.5a.5.5 0 0 1 .5-.5h2a.5.5 0 0 1 0 1h-2a.5.5 0 0 1-.5-.5Zm.5 5.5a.5.5 0 0 0 0 1h2a.5.5 0 0 0 0-1h-2Z" clip-rule="evenodd"/></svg>
